static/logos/hotjar-wordmark-color.svg

<svg width="100" height="26" viewBox="0 0 100 26" fill="none" xmlns="http://www.w3.org/2000/svg">
<g clip-path="url(#clip0_1_2423)">
<path d="M26.1406 19.5657V0.0280762H29.1761V7.73059C30.132 6.30682 31.5658 5.59469 33.4772 5.59418C35.1076 5.59418 36.3679 6.07673 37.2583 7.04183C38.1486 8.00693 38.5939 9.35162 38.594 11.0759V19.5657H35.5584V11.4976C35.5584 9.26763 34.565 8.15253 32.5784 8.15223C31.5848 8.15223 30.7697 8.45209 30.1328 9.05181C29.496 9.65153 29.1772 10.4949 29.1766 11.5819V19.5655L26.1406 19.5657Z" fill="#323232"/>
<path d="M52.9394 17.8795C51.5901 19.2288 49.8942 19.9034 47.8514 19.9034C45.8087 19.9034 44.1079 19.2288 42.749 17.8795C41.3902 16.53 40.7108 14.8149 40.7109 12.7342C40.711 10.6536 41.3904 8.9436 42.749 7.60423C44.1077 6.26454 45.8085 5.59455 47.8514 5.59424C49.8943 5.59394 51.5903 6.26394 52.9394 7.60423C54.289 8.94441 54.9637 10.6544 54.9636 12.7342C54.9635 14.8141 54.2888 16.5291 52.9394 17.8795ZM44.97 16.1644C45.6909 17.0077 46.6515 17.4295 47.8514 17.4295C49.0514 17.4295 50.0118 17.0077 50.7328 16.1644C51.4539 15.3211 51.8147 14.1777 51.815 12.7342C51.815 11.3101 51.4496 10.1763 50.7188 9.33281C49.9879 8.48933 49.0321 8.06765 47.8514 8.06775C46.6518 8.06775 45.6913 8.48473 44.97 9.31869C44.2486 10.1527 43.8878 11.291 43.8876 12.7337C43.8876 14.1777 44.2484 15.3213 44.97 16.1644Z" fill="#323232"/>
<path d="M61.9922 19.903C59.1995 19.903 57.8032 18.4036 57.8032 15.405V8.48966H55.6953V5.93162H57.888L58.5909 1.91241H60.8676V5.93162H66.2931V8.48966H60.8678V15.3208C60.8678 16.5767 61.3269 17.2045 62.2452 17.2044C63.107 17.2044 63.8848 16.4172 64.5784 14.8429L66.9399 16.0518C65.7777 18.6196 64.1284 19.9032 61.9922 19.903Z" fill="#323232"/>
<path d="M67.9156 25.8065C66.5662 25.8065 65.4511 25.4316 64.5703 24.6819L65.6948 22.2925C66.2385 22.9294 66.8288 23.2481 67.4659 23.2487C68.3091 23.2487 68.7307 22.7053 68.7307 21.6183V5.9316H71.7663V21.6738C71.7663 23.1356 71.4056 24.1898 70.684 24.8362C69.9625 25.4828 69.0397 25.8061 67.9156 25.8065ZM70.2488 3.62627C69.7498 3.6432 69.2644 3.46124 68.8994 3.1204C68.7239 2.95496 68.5856 2.75412 68.4935 2.53119C68.4015 2.30827 68.3578 2.06832 68.3655 1.82726C68.3587 1.58422 68.4028 1.34244 68.4947 1.11737C68.5867 0.892285 68.7245 0.688839 68.8994 0.520009C69.2664 0.185448 69.7452 0 70.2418 0C70.7384 0 71.2172 0.185448 71.5842 0.520009C71.7628 0.68674 71.9041 0.889471 71.9986 1.11482C72.093 1.34015 72.1387 1.58298 72.1324 1.82726C72.1368 2.06712 72.0902 2.30517 71.9957 2.52567C71.9012 2.74616 71.761 2.94406 71.5842 3.10628C71.4068 3.27659 71.1975 3.41019 70.9684 3.49942C70.7392 3.58866 70.4947 3.63176 70.2488 3.62627Z" fill="#323232"/>
<path d="M79.3068 19.9032C77.751 19.9032 76.4906 19.5143 75.5258 18.7367C74.5608 17.9589 74.0783 16.9144 74.0781 15.6029C74.0781 14.4035 74.5794 13.3867 75.5821 12.5521C76.5847 11.7177 77.845 11.3007 79.363 11.3013C80.9186 11.3013 82.2305 11.7979 83.2987 12.7913V11.1325C83.2987 10.1583 83.0503 9.40398 82.5536 8.86952C82.0568 8.33506 81.3494 8.06799 80.4314 8.06829C78.576 8.06829 77.4234 9.01467 76.9735 10.9074L74.1904 10.3172C74.5648 8.85545 75.3051 7.70291 76.4113 6.85954C77.5176 6.01616 78.895 5.59448 80.5436 5.59448C82.343 5.59448 83.7626 6.06772 84.8026 7.0142C85.8426 7.96068 86.3626 9.34276 86.3629 11.1604V19.5659H83.411V17.8508C82.4175 19.2192 81.0494 19.9034 79.3068 19.9032ZM79.8683 17.6543C81.2179 17.6543 82.3612 16.9797 83.2986 15.6304V15.2083C82.3611 14.0839 81.2178 13.5216 79.8683 13.5217C79.0813 13.5217 78.4439 13.714 77.956 14.0985C77.7253 14.2684 77.5387 14.491 77.4116 14.7477C77.2844 15.0044 77.2205 15.2878 77.225 15.5742C77.2176 15.8636 77.2788 16.1507 77.4033 16.4121C77.5279 16.6734 77.7125 16.9017 77.942 17.0782C78.4209 17.4624 79.0633 17.6544 79.869 17.6543H79.8683Z" fill="#323232"/>
<path d="M89.3203 19.5657V5.93154H92.272V8.29287C93.0214 6.5688 94.3145 5.7067 96.1515 5.7066C97.2381 5.7066 98.1376 6.06267 98.8502 6.77481C99.5628 7.48695 99.9187 8.44273 99.9181 9.64217C99.9105 10.36 99.7872 11.0721 99.5527 11.7506L96.7697 11.4695C96.8268 11.0969 96.8642 10.7216 96.8819 10.3451C96.8819 8.9395 96.3011 8.23667 95.1392 8.23657C94.3519 8.23657 93.6913 8.65355 93.1573 9.48751C92.6234 10.3215 92.3562 11.4226 92.356 12.7909V19.5657H89.3203Z" fill="#323232"/>
<path d="M7.18299 8.0176C9.44538 6.76074 12.5439 5.03899 12.5439 0.0280762H8.79197C8.79197 2.8317 7.42704 3.58998 5.3609 4.73786C3.09853 5.99518 0 7.71618 0 12.7276H3.75192C3.75192 9.92377 5.11685 9.16549 7.18299 8.0176Z" fill="#FF3C00"/>
<path d="M13.6748 6.86615C13.6748 9.66991 12.3098 10.4282 10.2437 11.5759C7.98194 12.8328 4.88281 14.5543 4.88281 19.5656H8.63459C8.63459 16.7618 9.99951 16.0036 12.0656 14.8557C14.328 13.5988 17.4264 11.8775 17.4264 6.86615H13.6748Z" fill="#FF3C00"/>
</g>
<defs>
<clipPath id="clip0_1_2423">
<rect width="100" height="25.8065" fill="white"/>
</clipPath>
</defs>
</svg>

<svg xmlns="http://www.w3.org/2000/svg" width="246.154" height="64" fill="none" viewBox="0 0 100 26"><g clip-path="url(#a)"><path fill="#323232" d="M26.14 19.566V.028h3.036v7.703c.956-1.424 2.39-2.136 4.301-2.137 1.63 0 2.89.483 3.781 1.448.89.965 1.336 2.31 1.336 4.034v8.49h-3.036v-8.068c0-2.23-.993-3.345-2.98-3.346-.993 0-1.808.3-2.445.9-.637.6-.956 1.443-.956 2.53v7.983H26.14ZM52.94 17.88c-1.35 1.349-3.046 2.023-5.089 2.023-2.042 0-3.743-.674-5.102-2.023-1.359-1.35-2.038-3.065-2.038-5.146 0-2.08.68-3.79 2.038-5.13 1.359-1.34 3.06-2.01 5.102-2.01 2.043 0 3.74.67 5.088 2.01 1.35 1.34 2.025 3.05 2.025 5.13s-.675 3.795-2.025 5.146Zm-7.97-1.716c.72.844 1.681 1.265 2.881 1.265 1.2 0 2.16-.421 2.882-1.265.72-.843 1.082-1.986 1.082-3.43 0-1.424-.365-2.558-1.096-3.401-.731-.844-1.687-1.265-2.868-1.265-1.2 0-2.16.417-2.881 1.25-.721.835-1.082 1.973-1.082 3.416 0 1.444.36 2.587 1.082 3.43ZM61.992 19.903c-2.792 0-4.189-1.5-4.189-4.498V8.49h-2.108V5.932h2.193l.703-4.02h2.277v4.02h5.425V8.49h-5.425v6.83c0 1.257.459 1.884 1.377 1.884.862 0 1.64-.787 2.333-2.361l2.362 1.209c-1.162 2.568-2.812 3.851-4.948 3.851Z"/><path fill="#323232" d="M67.916 25.806c-1.35 0-2.465-.374-3.346-1.124l1.125-2.39c.544.637 1.134.956 1.77.957.844 0 1.266-.544 1.266-1.63V5.931h3.035v15.742c0 1.462-.36 2.516-1.082 3.162-.721.647-1.644.97-2.768.97Zm2.333-22.18a1.884 1.884 0 0 1-1.35-.506 1.704 1.704 0 0 1-.534-1.293A1.749 1.749 0 0 1 68.9.52a1.993 1.993 0 0 1 2.685 0 1.728 1.728 0 0 1 .548 1.307 1.694 1.694 0 0 1-.548 1.28 1.868 1.868 0 0 1-1.335.52ZM79.307 19.903c-1.556 0-2.816-.389-3.781-1.166-.965-.778-1.448-1.823-1.448-3.134 0-1.2.501-2.216 1.504-3.05 1.003-.835 2.263-1.252 3.781-1.252 1.556 0 2.868.497 3.936 1.49v-1.659c0-.974-.249-1.728-.745-2.262-.497-.535-1.205-.802-2.123-.802-1.855 0-3.008.947-3.457 2.84l-2.784-.59c.375-1.463 1.115-2.615 2.221-3.458 1.107-.844 2.484-1.266 4.133-1.266 1.799 0 3.219.474 4.259 1.42 1.04.947 1.56 2.329 1.56 4.146v8.406H83.41V17.85c-.993 1.368-2.362 2.052-4.104 2.052Zm.561-2.249c1.35 0 2.493-.674 3.43-2.024v-.422c-.937-1.124-2.08-1.686-3.43-1.686-.787 0-1.424.192-1.912.576a1.796 1.796 0 0 0-.731 1.476 1.84 1.84 0 0 0 .717 1.504c.479.384 1.121.576 1.927.576ZM89.32 19.566V5.932h2.952v2.36c.75-1.723 2.042-2.585 3.88-2.585 1.086 0 1.986.356 2.698 1.068.713.712 1.069 1.668 1.068 2.867a6.671 6.671 0 0 1-.365 2.109l-2.783-.281c.057-.373.094-.748.112-1.125 0-1.405-.58-2.108-1.743-2.108-.787 0-1.448.417-1.982 1.25-.534.835-.8 1.936-.801 3.304v6.775H89.32Z"/><path fill="#FF3C00" d="M7.183 8.018c2.262-1.257 5.36-2.979 5.36-7.99H8.793c0 2.804-1.365 3.562-3.431 4.71C3.099 5.995 0 7.716 0 12.728h3.752c0-2.804 1.365-3.563 3.431-4.71ZM13.675 6.866c0 2.804-1.365 3.562-3.431 4.71-2.262 1.257-5.361 2.978-5.361 7.99h3.752c0-2.804 1.365-3.562 3.43-4.71 2.263-1.257 5.361-2.979 5.361-7.99h-3.751Z"/></g><defs><clipPath id="a"><path fill="#fff" d="M0 0h100v25.806H0z"/></clipPath></defs></svg>
